material/.icons/material/account-child.svg

<svg xmlns="http://www.w3.org/2000/svg" viewBox="0 0 24 24"><path d="M12 2a3 3 0 013 3 3 3 0 01-3 3 3 3 0 01-3-3 3 3 0 013-3m0 7c1.63 0 3.12.35 4.5 1.05 1.34.71 2 1.56 2 2.56v5.77c0 1.12-.86 2.06-2.61 2.81V19c0-.95-.86-1.62-2.58-2.03-.56-.13-1-.19-1.31-.19-.87 0-1.7.17-2.46.52-.77.34-1.23.78-1.38 1.31 1.34.53 2.62.8 3.84.8l1-.1v2.63L12 22a9.68 9.68 0 01-3.89-.81c-1.75-.75-2.61-1.69-2.61-2.81v-5.77c0-1 .66-1.85 2-2.56C8.88 9.35 10.38 9 12 9m0 2a2 2 0 00-2 2 2 2 0 002 2 2 2 0 002-2 2 2 0 00-2-2z"/></svg>

<?xml version="1.0" encoding="UTF-8"?><!DOCTYPE svg PUBLIC "-//W3C//DTD SVG 1.1//EN" "http://www.w3.org/Graphics/SVG/1.1/DTD/svg11.dtd"><svg xmlns="http://www.w3.org/2000/svg" xmlns:xlink="http://www.w3.org/1999/xlink" version="1.1" id="mdi-account-child" width="24" height="24" viewBox="0 0 24 24"><path d="M12,2A3,3 0 0,1 15,5A3,3 0 0,1 12,8A3,3 0 0,1 9,5A3,3 0 0,1 12,2M12,9C13.63,9 15.12,9.35 16.5,10.05C17.84,10.76 18.5,11.61 18.5,12.61V18.38C18.5,19.5 17.64,20.44 15.89,21.19V19C15.89,18.05 15.03,17.38 13.31,16.97C12.75,16.84 12.31,16.78 12,16.78C11.13,16.78 10.3,16.95 9.54,17.3C8.77,17.64 8.31,18.08 8.16,18.61C9.5,19.14 10.78,19.41 12,19.41L13,19.31V21.94L12,22C10.63,22 9.33,21.72 8.11,21.19C6.36,20.44 5.5,19.5 5.5,18.38V12.61C5.5,11.61 6.16,10.76 7.5,10.05C8.88,9.35 10.38,9 12,9M12,11A2,2 0 0,0 10,13A2,2 0 0,0 12,15A2,2 0 0,0 14,13A2,2 0 0,0 12,11Z" /></svg>
